!!!ONR: No. 22
!! From Harold Courlander, "Haiti Singing"
!! Chapel Hill: University of North Carolina Press, 1939
!! Copyright University of North Carolina Press
!!!ENC: D. Huron
**kern
*clefG2
*k[]
*M2/4
=1-
6r
6g
[6g
=
8g]
8g
8a
8a
=
(2g
=
2c)
=
6r
6g
[6e
=
8e]
8e
8g
8g
=
(2e
=
2a
=
6g]
6c
[6d
=
8d]
8c
8c
8e
=
4.g
8e
=
8c
8c
4c
=
8g
8g
8g
[8a
=
8a]
8g
8e
8e
=
4.c
8g
=
8e
8e
4g
=
6c
6c
[6e
=
8e]
8e
8c
8c
=
3g
6e
=
8c
8c
[4c
=
2c]
==
*-
